X: 4011
T: Blackwater, The
R: polka
M: 2/4
K: Gmajor
|:GE|D2 G>A|B/c/d B2|AG/A/ BA|AG E/F/G/E/|
D2 G>A|B/c/d B2|AG/A/ B/c/B/A/|G2-:|
|:GB/d/|g2 eg/e/|dB dB|G>A BG|
[1 AG EG|ga/g/ eg/e/|d/e/d/B/ dB|G>A BG|A2:|
[2 AG EG/E/|D2 G>A|B/c/d Bd/B/|AG B/c/B/A/|G2||

